public/img/icons/ohjeet.svg

<?xml version="1.0" encoding="UTF-8"?>
<svg width="20px" height="20px" viewBox="0 0 20 20" version="1.1" xmlns="http://www.w3.org/2000/svg" xmlns:xlink="http://www.w3.org/1999/xlink">
    <!-- Generator: Sketch 61 (89581) - https://sketch.com -->
    <title>l</title>
    <desc>Created with Sketch.</desc>
    <defs>
        <path d="M15,2 C16.0636364,2 17.1727273,2.13636364 18.1818182,2.45454545 C18.8636364,2.68181818 19.4545455,2.95454545 20,3.36363636 L20,3.36363636 L20,16.6363636 C20,16.8636364 19.7727273,17.0909091 19.5454545,17.0909091 C19.4545455,17.0909091 19.4090909,17.0909091 19.3181818,17.0454545 C18.9384943,16.8420505 18.5345346,16.6750549 18.1147505,16.5408472 C17.1274018,16.2251854 16.0525112,16.0909091 15,16.0909091 C13.4545455,16.0909091 11.2272727,16.6818182 10,17.4545455 C8.68181818,16.4545455 6.77272727,16.0909091 5,16.0909091 C3.68181818,16.0909091 1.90909091,16.5 0.681818182,17.0909091 C0.590909091,17.0909091 0.545454545,17.1363636 0.454545455,17.1363636 C0.227272727,17.1363636 0,16.9090909 0,16.6818182 L0,16.6818182 L0,3.36363636 C1.31818182,2.36363636 3.22727273,2 5,2 C6.77272727,2 8.68181818,2.36363636 10,3.36363636 C11.3181818,2.36363636 13.2272727,2 15,2 Z M15,4 C13.4545455,4 11.2272727,4.58727273 10,5.36 L10,5.36 L10,15.45 C11.2272727,14.6772727 13.4545455,14.09 15,14.09 C16.0909091,14.09 17,14.2218182 18,14.54 L18,14.54 L18,4.45 C17,4.13181818 16.0909091,4 15,4 Z M15,10.8454545 C15.7818182,10.8454545 16.5545455,10.9181818 17.2727273,11.0636364 L17.2727273,11.0636364 L17.2727273,12.4454545 C16.5727273,12.2909091 15.8,12.2090909 15,12.2090909 C13.3636364,12.2090909 11.9363636,12.5272727 10.9090909,13.1090909 L10.9090909,13.1090909 L10.9090909,11.6 C12.0545455,11.1090909 13.4545455,10.8454545 15,10.8454545 Z M15,8.41818182 C15.7818182,8.41818182 16.5545455,8.5 17.2727273,8.63636364 L17.2727273,8.63636364 L17.2727273,10.0181818 C16.5727273,9.86363636 15.8,9.78181818 15,9.78181818 C13.3636364,9.78181818 11.9363636,10.1 10.9090909,10.6818182 L10.9090909,10.6818182 L10.9090909,9.17272727 C12.0545455,8.69090909 13.4545455,8.41818182 15,8.41818182 Z M15,6 C15.7818182,6 16.5545455,6.08181818 17.2727273,6.21818182 L17.2727273,6.21818182 L17.2727273,7.6 C16.5727273,7.44545455 15.8,7.36363636 15,7.36363636 C13.3636364,7.36363636 11.9363636,7.68181818 10.9090909,8.26363636 L10.9090909,8.26363636 L10.9090909,6.75454545 C12.0545455,6.26363636 13.4545455,6 15,6 Z" id="path-1"></path>
    </defs>
    <g id="l" stroke="none" stroke-width="1" fill="none" fill-rule="evenodd">
        <g id="Ikonit/ohjeet">
            <mask id="mask-2" fill="white">
                <use xlink:href="#path-1"></use>
            </mask>
            <use id="Mask" fill="#000000" fill-rule="nonzero" xlink:href="#path-1"></use>
            <g id="Värit/Tumma-harmaa" mask="url(#mask-2)" fill="#575757" fill-rule="evenodd">
                <g transform="translate(0.000000, -0.000000)" id="Rectangle">
                    <rect x="0" y="0" width="20" height="20"></rect>
                </g>
            </g>
        </g>
    </g>
</svg>

<svg width="20" height="20" xmlns="http://www.w3.org/2000/svg" xmlns:xlink="http://www.w3.org/1999/xlink">
    <defs>
        <path d="M15 2c1.064 0 2.173.136 3.182.455.682.227 1.273.5 1.818.909v13.272a.489.489 0 01-.455.455c-.09 0-.136 0-.227-.046a7.17 7.17 0 00-1.203-.504c-.988-.316-2.062-.45-3.115-.45-1.545 0-3.773.59-5 1.364-1.318-1-3.227-1.364-5-1.364-1.318 0-3.09.409-4.318 1-.091 0-.137.045-.227.045A.489.489 0 010 16.682V3.364C1.318 2.364 3.227 2 5 2c1.773 0 3.682.364 5 1.364C11.318 2.364 13.227 2 15 2zm0 2c-1.545 0-3.773.587-5 1.36v10.09c1.227-.773 3.455-1.36 5-1.36 1.09 0 2 .132 3 .45V4.45C17 4.132 16.09 4 15 4zm0 6.845c.782 0 1.555.073 2.273.219v1.381A10.67 10.67 0 0015 12.209c-1.636 0-3.064.318-4.09.9V11.6c1.145-.49 2.545-.755 4.09-.755zm0-2.427c.782 0 1.555.082 2.273.218v1.382A10.67 10.67 0 0015 9.782c-1.636 0-3.064.318-4.09.9v-1.51c1.145-.481 2.545-.754 4.09-.754zM15 6c.782 0 1.555.082 2.273.218V7.6c-.7-.155-1.473-.236-2.273-.236-1.636 0-3.064.318-4.09.9v-1.51C12.054 6.265 13.454 6 15 6z" id="a"/>
    </defs>
    <g fill="none" fill-rule="evenodd">
        <mask id="b" fill="#fff">
            <use xlink:href="#a"/>
        </mask>
        <use fill="#000" fill-rule="nonzero" xlink:href="#a"/>
        <g mask="url(#b)" fill="#575757">
            <path d="M0 0h20v20H0z"/>
        </g>
    </g>
</svg>
